X: 10116
T: Difyrrwch Y Brenin
R: reel
M: 4/4
K: Gmajor
D2 D2 G2 G2|AB cA B3 B|c2 E2 F2 GB|A3 G G4:|
A2 FG A2 GB|AG FG A2 Bc|d2 E2 FA GF|E3 D D4|
d>e dc B2 G2|AB cA B3 B|c2 E2 F2 GB|A3 G G4||

